src/assets/duotone/DeviceMessage.svg

<svg width="24" height="24" viewBox="0 0 24 24"  xmlns="http://www.w3.org/2000/svg">
<path d="M20 12.2V13.9C20 17.05 18.2 18.4 15.5 18.4H6.5C3.8 18.4 2 17.05 2 13.9V8.5C2 5.35 3.8 4 6.5 4H9.2C9.07 4.38 9 4.8 9 5.25V9.15002C9 10.12 9.32 10.94 9.89 11.51C10.46 12.08 11.28 12.4 12.25 12.4V13.79C12.25 14.3 12.83 14.61 13.26 14.33L16.15 12.4H18.75C19.2 12.4 19.62 12.33 20 12.2Z" />
<path opacity="0.4" d="M22 5.25V9.15002C22 10.64 21.24 11.76 20 12.2C19.62 12.33 19.2 12.4 18.75 12.4H16.15L13.26 14.33C12.83 14.61 12.25 14.3 12.25 13.79V12.4C11.28 12.4 10.46 12.08 9.89 11.51C9.32 10.94 9 10.12 9 9.15002V5.25C9 4.8 9.07 4.38 9.2 4C9.64 2.76 10.76 2 12.25 2H18.75C20.7 2 22 3.3 22 5.25Z" />
<path opacity="0.4" d="M14.5999 21.2499H11.7499V18.3999C11.7499 17.9899 11.4099 17.6499 10.9999 17.6499C10.5899 17.6499 10.2499 17.9899 10.2499 18.3999V21.2499H7.3999C6.9899 21.2499 6.6499 21.5899 6.6499 21.9999C6.6499 22.4099 6.9899 22.7499 7.3999 22.7499H14.5999C15.0099 22.7499 15.3499 22.4099 15.3499 21.9999C15.3499 21.5899 15.0099 21.2499 14.5999 21.2499Z" />
<path d="M15.4399 8C15.0199 8 14.6899 7.66 14.6899 7.25C14.6899 6.84 15.0299 6.5 15.4399 6.5C15.8499 6.5 16.1899 6.84 16.1899 7.25C16.1899 7.66 15.8499 8 15.4399 8Z" />
<path d="M18.25 8C17.83 8 17.5 7.66 17.5 7.25C17.5 6.84 17.84 6.5 18.25 6.5C18.66 6.5 19 6.84 19 7.25C19 7.66 18.66 8 18.25 8Z" />
<path d="M12.6201 8C12.2001 8 11.8701 7.66 11.8701 7.25C11.8701 6.84 12.2101 6.5 12.6201 6.5C13.0301 6.5 13.3701 6.84 13.3701 7.25C13.3701 7.66 13.0401 8 12.6201 8Z" />
</svg>

<?xml version="1.0" encoding="UTF-8"?>
<svg width="24" height="24" viewBox="0 0 24 24" xmlns="http://www.w3.org/2000/svg">
 <path d="m20 12.2v1.7c0 3.15-1.8 4.5-4.5 4.5h-9c-2.7 0-4.5-1.35-4.5-4.5v-5.4c0-3.15 1.8-4.5 4.5-4.5h2.7c-0.13 0.38-0.2 0.8-0.2 1.25v3.9c0 0.96998 0.32 1.79 0.89 2.36s1.39 0.89 2.36 0.89v1.39c0 0.51 0.58 0.82 1.01 0.54l2.89-1.93h2.6c0.45 0 0.87-0.07 1.25-0.2z"/>
 <path d="m22 5.25v3.9c0 1.49-0.76 2.61-2 3.05-0.38 0.13-0.8 0.2-1.25 0.2h-2.6l-2.89 1.93c-0.43 0.28-1.01-0.03-1.01-0.54v-1.39c-0.97 0-1.79-0.32-2.36-0.89s-0.89-1.39-0.89-2.36v-3.9c0-0.45 0.07-0.87 0.2-1.25 0.44-1.24 1.56-2 3.05-2h6.5c1.95 0 3.25 1.3 3.25 3.25z" opacity=".4"/>
 <path d="m14.6 21.25h-2.85v-2.85c0-0.41-0.34-0.75-0.75-0.75s-0.75 0.34-0.75 0.75v2.85h-2.85c-0.41 0-0.75 0.34-0.75 0.75s0.34 0.75 0.75 0.75h7.2c0.41 0 0.75-0.34 0.75-0.75s-0.34-0.75-0.75-0.75z" opacity=".4"/>
 <path d="m15.44 8c-0.42 0-0.75-0.34-0.75-0.75s0.34-0.75 0.75-0.75 0.75 0.34 0.75 0.75-0.34 0.75-0.75 0.75z"/>
 <path d="m18.25 8c-0.42 0-0.75-0.34-0.75-0.75s0.34-0.75 0.75-0.75 0.75 0.34 0.75 0.75-0.34 0.75-0.75 0.75z"/>
 <path d="m12.62 8c-0.42 0-0.75-0.34-0.75-0.75s0.34-0.75 0.75-0.75 0.75 0.34 0.75 0.75-0.33 0.75-0.75 0.75z"/>
</svg>
